X:10003
T:Joy to the World
M:2/2
L:1/8
K:C clef=bass
C,,2 C,,3/2C,,/2| C,,3 F,, | G,,2 G,,2 | C,,3 E,, |
F,,3 F,,| G,,3 G,,|C,,3 C,,| C,,2 C,,2 | C,,3 C,, |
C,,2 C,,2 | C,,3 z | z2 z C,, | C,,C,, C,,C,,|
G,,3 G,, | G,,G,, G,,G,, | C,,3 C,, | C,,3 F,,| G,,2 G,,2 | C,,4|]
